X:1
T:Quadrille – La Poole
M:6/8
L:1/8
B:John Moore music manuscript (Shropshire c. 1837-40, Book 2, p. 85)
B:  https://www.vwml.org/topics/historic-dance-and-tune-books/Moore2
Z:AK/Fiddler’s Companion
K:D
A|Aff ced|A3 A2B|A2F A2F|A2G E2A|
AFF CED|B3 BAG|FAF GEC|E3 D2:|
|:F|GEC A2G| FAd f2d|gec A2F|G3 F2F|
GEC A2G|FAd f2d|Bef gec|e3 d2:|]

